X:15287
T:She Wants A Fellow. BF12.17
M:6/8
L:1/8
C:"Kesswick June 19 1833"
S:MS12,J.Wilson, 1833,Browne Coll.,Lakes
R:Jig
O:England
A:Lakes
N:Kesswick presumably refers to the town of Keswick rather than a Mr.
N:Kesswick.  But then again, maybe not
Z:vmp.Cherri Graebe.
K:D major
c|d2DF2D|ABA ABc|d2A GFE|FDD Dfe|!
d2DF2D|ABA ABc|d2"G in ms"A GFE|FDDD2:|!
|:A|dcd Bcd|dfd cBA|dcd efg|fdd def|!
gfg Bcd|efd cBA|d2"crot"A GFE|FDDD2:||
